X:1
T:Title
%%score { ( 1 3 ) | ( 2 4 ) }
L:1/8
Q:1/4=76
M:4/4
K:Eb
V:1 treble nm="Grand Piano"
V:3 treble 
V:2 bass 
V:4 bass 
V:1
 G3 G _G=G [EGc]>[B,EG] | [B,EB]4 [B,DA]2 z2 | [B,DF]3 [B,EG] [B,FA][DAB] [FAd]>[DAc] | [EGB]6 z2 | %4
w: B.~D.~Ackley * * * * *||||
 [B,EG]3 [=B,FG] [Ge][Gd][Gc][G=B] | [Fd]4 [Ec]2 z2 | e3 c =AF G>A | [B,B]6 z2 | %8
w: ||||
 [Ge]3 [Gd] [Gc]G [Gc]>[EG] | [EB]4 [DA]4 | [Ad]3 [EAc] [DFB][DFA][B,DF][B,D_G] | [B,EG]6 z2 | %12
w: ||||
 [B,EG]3 [B,FA] [EGB][G,E][Ge][GB] | [Bd]4 c4 | B3 =A cB [D_A]>[DF] | [B,E]6 z2 |] %16
w: ||||
V:2
 [E,B,E]3 [E,B,E] [E,=A,E][E,B,E] E,>E, | G,2 _G,2 F,2 z2 | B,,3 B,, B,,B,, B,>B, | E,6 z2 | %4
 E,3 D, [C,C][D,=B,][E,C][G,D] | [G,=B,]4 [C,C]2 z2 | %6
 [F,=A,F]3 [F,A,E] [F,CE][F,A,E] [F,B,E]>[F,CE] | z4[K:treble] A2 z2 | %8
 [E,B,]3 [E,B,] [E,B,][E,E] [E,E]>[E,B,] | [B,,G,]4 [B,,F,]4 | [B,,B,]3 B,, B,,B,,B,,B,, | E,6 z2 | %12
 E,3 E, E,E,[E,B,][E,E] | [A,E]4 [A,EA]4 | [B,EG]3 [B,E_G] [B,DA][B,DA][K:bass] [B,,B,]>[B,,A,] | %15
 [E,G,]6 z2 |] %16
V:3
 x8 | x8 | x8 | x8 | x8 | x8 | x8 | D4 z4 | x8 | x8 | x8 | x8 | x8 | x8 | x8 | x8 |] %16
V:4
 x8 | x8 | x8 | x8 | x8 | x8 | x8 | B,,6[K:treble] z2 | x8 | x8 | x8 | x8 | x8 | x8 | %14
 x6[K:bass] x2 | x8 |] %16

